X:1
T:Credo quod Redemptor - Lobo
T:#
%%score [ 1 2 3 4 ]
L:1/8
Q:1/4=92
M:2/2
K:C
V:1 treble nm="Soprano" snm="S"
V:2 treble nm="Alto" snm="A"
V:3 treble-8 nm="Tenor" snm="T"
V:4 bass nm="Bass" snm="B"
V:1
"^Credo quod Redemptor""^Alonso Lobo\n(c.1555-1617)" z8 | z8 | z8 | z4 A4- | A4 E4 | %5
w: |||Cre\-|* do|
[M:2/2] z2 A4 A2 | G2 G2 (c3 B/A/ | G2) A4 G2 | A2 (DE FGAB | c2) G2 (A3 G/F/ | GE A4) G2 | %11
w: quod Re-|dem- ptor me\- * *|* us vi-|vit, quod * * * * *|* Re- dem\- * *|* * * ptor|
 A2 A2 G4 | E4 z2 (c2- | c2 B2) G4 | z2 c4 A2 | B2 c2 d4 | A4 c3 c | B2 c2 G2 A2 | E4 E4 | z8 | %20
w: me- us vi-|vit, Cre\-|* * do|quod Re-|dem- ptor me-|us, quod Re-|dem- ptor me- us|vi- vit,||
 B4 c2 A2 | c3 c B2 (A2- | A2 G2) F2 A2 | G3 G F2 F2 | E4 z2 e2 | e3 e d2 e2 | c2 (d4 cB | %27
w: et in no-|vis- si- mo di\-|* * e, no-|vis- si- mo di-|e, et|in no- vis- si-|mo di\- * *|
 cA c3 B A2- | A2) ^G2 z2 A2 | A2 F2 G2 F2 | (F2 E2) (D4- | D2 CB, C3 D | E8 | D4 A4 | z2 E2 G4 | %35
w: |* e, et|in no- vis- si-|mo * di\-|||* e,|de ter-|
 D2 d4 ^c2 | d2 e2 d2 G2- | G2 F2 G2 A2 | G4 E2 F2 | F2 A2 G4- | G4 z2 c2- | c2 B2 A4- | %42
w: ra sur- rec-|tu- rus sum, sur\-|* rec- tu- rus|sum, sur- rec-|tu- rus sum,|* sur\-|* rec- tu\-|
 A2 G2 A4- | A2 ^G^F !courtesy!^G4) | z8 | z2 A4 A2 | B2 c2 d4- | d4 G4 | z2 c2 c2 B2 | (A6 G2) | %50
w: * rus sum:|||et in|car- ne me\-|* a|vi- de- bo|De\- *|
 F4 z4 | z2 A4 E2 | (F3 G AB c2- | c2 BA B2) A2 | (B2 c2) d4 | (c3 B AG) A2- | A2 (G2 F4) | %57
w: um|Sal- va-|to\- * * * *|* * * * rem|me\- * um,|Sal\- * * * va\-|* to\- *|
 E4 z2 G2- | G2 G2 A2 B2 | (c4 B4) | A8 | z2 A2 A2 G2 | F4 E2 e2- | e2 G2 A2 B2 | %64
w: rem, et|* in car- ne|me- *|a|vi- de- bo|De- um Sal\-|* va- to- rem|
[Q:1/4=91] (c2[Q:1/4=89] A2-[Q:1/4=88] A[Q:1/4=87]G[Q:1/4=86] G2 |[Q:1/4=84] F4)[Q:1/4=81] E4- | %66
w: me\- * * * *|* um.|
[Q:1/4=80] E8 |] %67
w: |
V:2
 z4 E4- | E4 A,4 | z2 D4 D2 | C2 C2 (F3 E/D/ | C2) D4 ^C2 |[M:2/2] D2 (A,B, =CD E2- | %6
w: Cre\-|* do|quod Re-|dem- ptor me\- * *|* us vi-|vit, quod * * * *|
 E2) D2 E2 C2- | C2 (B,A,) B,2 C2 | F,2 F2 D2 (F2- | FE/D/ E2) (A,B,CD | E2 A,2 B,4 | z2 D4 D2 | %12
w: * Re- dem- ptor|* me\- * us vi-|vit, quod Re- dem\-|* * * * ptor * * *|* me- us,|quod Re-|
 C2 C2 E2 F2 | (G3 F EC G2- | GF E3 DCB,) | E4 z2 F2- | F2 D2 E2 F2 | G3 F ED E2- | %18
w: dem- ptor me- us|vi\- * * * *||vit, quod|* Re- dem- ptor|me\- * * * *|
 ED C2) B,2 (C2- | CB, A,4 ^G,^F, | ^G, A,2 G,) (A,B,CD | E4 z2 E2 | F2 D4 F2- | FF (E4 D2) | %24
w: * * * us vi\-||* * * vit, * * *|* et|in no- vis\-|* si- mo *|
 C2 B,A,) B,2 G2 | G3 G F2 G2 | E2 D2 (F2 ED | EDCB, A,G, C2 | B,4) A,2 F2 | F2 D2 E2 A,2 | %30
w: di\- * * e, et|in no- vis- si-|mo * di\- * *||* e, et|in no- vis- si-|
 A,2 (A,4 G,2) | A,4 z2 A,2 | C4 G,2 G2- | G2 D2 (D3 C | B,2 A,2 B,2) C2 | A,4 z2 E2 | %36
w: mo di\- *|e, de|ter- ra sur-|* rec- tu\- *|* * * rus|sum, sur-|
 F2 (G3 G/F/ D2) | (E2 DC B,2 A,2) | D4 A,2 (A,2- | A,B,CD E4) | D2 G4 F2 | (G3 F ED E2 | %42
w: rec- tu\- * * *|rus * * * *|sum, de ter\-||ra sur- rec-|tu\- * * * *|
 F2 E4) D2 | E8 | z8 | E4 E2 F2 | D2 (G4 FE | F4) E2 C2- | C2 C2 D2 E2 | (F3 E CD E2) | %50
w: * * rus|sum,||et in car-|ne me\- * *|* a, et|* in car- ne|me\- * * * *|
 A,2 A2 A2 G2 | F4 E2 A,2 | A,2 D3 D C2 | G,4 z4 | z2 G2 G2 F2 | (E3 D CB, C2- | CDEC D4) | %57
w: a vi- de- bo|De- um Sal-|va- to- rem me-|um,|vi- de- bo|De\- * * * *||
 G,2 G4 D2 | E3 E E2 D2 | z2 E4 B,2 | (C3 D) E2 (^F2 | G^FED E4) | D4 (C3 D) | E8 | z2 C4 G,2 | %65
w: um Sal- va-|to- rem me- um,|Sal- va-|to\- * rem me\-||um, me\- *|um,|Sal- va-|
 A,2 B,2 C4 | B,8 |] %67
w: to- rem me-|um.|
V:3
 z8 | z8 | z8 | z8 | z8 |[M:2/2][K:treble-8] z8 | z8 | e8 | A8 | z2 c4 A2 | c2 d2 (e3 d | %11
w: |||||||Cre-|do|quod Re-|dem- ptor me\- *|
 c2) A2 (B4- | A3 B c4) | d4 z2 (e2- | edcB A4- | A2 G2) A4 | z2 A4 A2 | G2 G2 (c3 B/A/ | %18
w: * us vi\-||vit, Cre\-||* * do|quod Re-|dem- ptor me\- * *|
 G2 A4) G2 | A4 B4 | z2 e2 e4- | e2 c2 d2 c2 | c2 B2 (A3 B | c2) G2 A2 B2 | (^G2 A4 =GA | %25
w: * * us|vi- vit,|et in|* no- vis- si-|mo di- e, *|* et in no-|vis\- * * *|
 BG) c2 A2 c2 | G4 A4 | z2 e2 e3 e | d2 e2 c2 d2 | A4 B2 d2- | dD E2 F2 D2 | (F2 ED) E4 | z6 E2 | %33
w: * * * si- mo|di- e,|et in no-|vis- si- mo di-|e, et in|* no- vis- si- mo|di\- * * e,|de|
 G4 D2 d2- | d2 c2 (d2 e2) | f4 e2 A2- | A2 (=c4 B2 | c2 A2 G2) c2- | c2 B2 c2 d2 | c2 A2 c4 | %40
w: ter- ra sur\-|* rec- tu\- *|rus sum, de|* ter\- *|* * ra sur\-|* rec- tu- rus|sum, de ter-|
 G4 z4 | d6 ^c2 | d2 B2 (A4 | B4) z2 B2 | B2 c3 A (d2- | d2 cB) c2 d2- | d2 G2 A4- | A2 B2 (c3 B | %48
w: ra|sur- rec-|tu- rus sum:|* et|in car- ne me\-|* * * a, et|* in car\-|* ne me\- *|
 A4 G4) | F4 z4 | z2 A2 A2 B2 | c2 (d4 ^c2) | d2 f2 f2 e2 | d8 | G4 z2 A2- | A2 E2 (F3 G | %56
w: |a,|et in car-|ne me\- *|a vi- de- bo|De-|um Sal\-|* va- to\- *|
 AB c4) B2 | (cG c4) B2 | z2 c2 c2 B2 | A6 G2 | (A3 B c2) d2 | B2 c2 c4 | A4 z2 A2 | A2 (E3 F) G2 | %64
w: * * * rem|me\- * * um,|vi- de- bo|De- um|Sal\- * * va-|to- rem me-|um, Sal\-|* va\- * to-|
 E2 e4 B2 | d4 G2 (A2- | A2 ^G^F) G4 |] %67
w: rem, Sal- va-|to- rem me\-|* * * um.|
V:4
 A,8 | E,4 z2 F,2- | F,2 D,2 F,2 G,2 | (A,3 G, F,2) D,2 | (F,3 G,) A,4 | %5
w: Cre-|do quod|* Re- dem- ptor|me\- * * us|vi\- * *|
[M:2/2] (D,E,F,G, A,B, C2- | C2 B,2) A,4 | E,8 | z2 D,4 D,2 | C,2 C,2 (F,3 E,/D,/ | C,2 F,2 (E,4 | %11
w: vit, * * * * * *|* * Cre-|do|quod Re-|dem- ptor me\- * *|* us vi\-|
 F,4) G,4 | z2 A,4 A,2 | G,2 G,2 C3 B,/A,/ | G,2) A,2 (F,4 | E,4) D,4- | D,4 z4 | z2 C,4 A,,2 | %18
w: * vit,|quod Re-|dem- ptor me\- * *|* us vi\-|* vit,||quod Re-|
 C,3 D, E,2 E,2 | F,4 E,4- | E,4 z2 A,2 | A,3 A, G,2 A,2 | F,2 G,2 D,4 | z8 | E,4 E,4- | %25
w: dem- ptor me- us|vi- vit,|* et|in no- vis- si-|mo di- e,||et in|
 E,2 C,2 D,2 C,2 | C,2 B,,2 A,,4- | A,,4 z4 | z2 E,2 F,2 D,2 | F,3 F, E,2 (D,2- | D,2 C,2 _B,,4) | %31
w: * no- vis- si-|mo di- e,||et in no-|vis- si- mo di\-||
 A,,8 | z2 A,,2 C,4 | G,,2 G,4 ^F,2 | G,2 A,2 (G,2 C,2 | D,E,F,G, A,4 | D,2 C,2 G,4) | %37
w: e,|de ter-|ra sur- rec-|tu- rus sum, *|||
 C,2 D,2 E,2 F,2 | G,4 z2 D,2 | F,4 C,2 C2- | C2 B,2 C2 A,2 | G,4 A,3 A, | (D,2 E,2) F,4 | %43
w: sur- rec- tu- rus|sum: de|ter- ra sur\-|* rec- tu- rus|sum, sur- rec-|tu\- * rus|
 E,4 z2 E,2- | E,2 E,2 F,2 G,2 | A,6 D,2 | G,2 E,2 D,2 D,2 | D,4 C,4 | z8 | z2 F,4 C,2 | %50
w: sum, et|* in car- ne|me- a,|et in car- ne|me- a||Sal- va-|
 (D,3 E, F,2) G,2 | A,8 | D,4 z4 | z2 G,2 G,2 F,2 | E,4 D,4 | z4 z2 F,2 | F,2 E,2 (D,4 | %57
w: to\- * * rem|me-|um,|vi- de- bo|De- um,|vi-|de- bo De\-|
 C,4) G,,4 | z2 C,4 G,,2 | (A,,B,,C,D, E,4) | A,,2 A,4 D,2 | E,2 A,,2 C,4 | D,4 A,,4 | %63
w: * um|Sal- va-|to\- * * * *|rem, Sal- va-|to- rem me\-|* um,|
 z2 C,4 G,,2 | (A,,B,,C,D, E,4 | D,4 C,2) A,,2 | E,8 |] %67
w: Sal- va-|to\- * * * *|* rem me-|um.|

